X:800
T:Port Mor na Lurgann
R:Strathspey
C:James Stewart-Robertson
B:The Athole Collection
M:C
L:1/8
K:F
d|c<F c>A c>df>d|c<F c>A G>AB>d|c<F c>A c>df>g|a>f a/g/f/e/ ~f2 f:|
c|f>ag>a ~f>cA>c|f>ag>a b/a/g/f/ d>e|1 f>ag>a ~f>cA>f|a>f a/g/f/e/ f2 f:|2
f>ag>b a>fe>c|a>f a/g/f/e/ ~f2 f||

